X: 362
T: Polka "Dedushka" (Grandfather Polka)
R: polka
O:
Q: 1/4=108
B: German Goldenshteyn "Shpilt klezmorimlach klingen zoln di gesalach" New York 2003 v.3 #62
Z: 2013 John Chambers <jc:trillian.mit.edu>
M: 2/4
L: 1/16
K: C
(g^f=fe _ed^c=c | B_BA_A G2) (G,F,) |: (E,G,)CE (Gc)eg | e2e2 Te2(eg) |
Te2(eg) Te2(eg) | (gf)dB G2z2 | G2(^FG) (=FG)Bd | b2b2 Tb2(ag) | Tb2(ag) Tb2(ag) | (ag)ec G2 (G,F,) |
(E,G,)CE (Gc)eg | e2e2 Te2(eg) | Te2(eg) Te2(eg) | (gf)dB G2z2 | G2(^FG) (=FG)Bd | b2b2 (Tb3a) | g2(ba) (gf)ed |
[1 c2e2c2 (G,F,) :|[2 c2e2c2z2 |: d2(^cd) (ed)cd | (BD)GB d4 | (cd)cB A2A2 | (Bc)BA G4 | d2(^cd) (ed)cd |
(BD)GB d4 | (cd)cB A2(BA) |[1 G2B2G2z2 :|[2 G2B2G2 (G,F,) |] (E,G,)CE (Gc)dg | e2e2 Te2(eg) | Te2(eg) Te2(eg) |
(gf)dB G2z2 | G2(^FG) (=FG)Bd | b2b2 Tb2(ag) | Tb2(ag) Tb2(ag) | (ag)ec G2 (G,F,) | (E,G,)CE (Gc)eg | e2e2 Te2(eg) |
Te2(eg) Te2(eg) | (gf)dB G2z2 | G2(^FG) (=FG)Bd | b2b2 (Tb3a) | g2(ba) (gf)ed | c2e2c2 c'2 |: c'4- c'afd |
c4- cdc_B | (Ac)fa (Ac)fa | (d'c')_bg e2b2 | _b4- bged | c6 (ec) | Te2(ec) Te2(ec) | (dc)AF C2 c'2 |
c'4- c'afd | c4- cdc_B | (Ac)fa (Ac)fa | (d'c')_bg e2b2 | _b4- bged | c6 | (ed) ~c2(=Bc) ^cd^de |
[1 f2a2f2 c'2 :|[2 f2a2f2 : (G,F,) |]
